X:1
T:Title
%%score { ( 1 3 ) | 2 }
L:1/8
M:2/2
K:C
V:1 treble nm="Grand Piano"
V:3 treble 
V:2 bass 
V:1
 z4 z2 G2 | c4 G4 | A4 E4 | G2 [G,B,G]2 [G,CG]2 [G,FG]2 | [G,EG]6 E2 | A4 E4 | F4 D4 | %7
 E2 [^G,B,E]2 [A,CE]2 [G,DE]2 | [A,CE]6 [A,CE]2 | [G,DG]4 [G,D]3 [G,DF] | %10
 [G,DF]2 [G,CE]2 [G,CE]2 [G,DF]2 | [CG]2- [CFG]2 [CGc]2 [CGB]2 | A6 A2 | G4 c2 d2 | e2 G2 A2 c2 | %15
 z4 B4 |[M:3/4] [Ec]6 |] %17
V:2
 z4 z2 G,2 | C4 G,4 | A,4 E,4 | G,2 F,2 E,2 D,2 | C,6 E,2 | A,4 E,4 | F,4 D,4 | E,2 D,2 C,2 B,,2 | %8
 A,,6 A,,2 | B,,4 B,,3 B,, | C,2 C,2 C,2 C,2 | C,2 D,2 E,2 E,2 | [F,CF]6 [F,CF]2 | %13
 [E,C]4[K:treble] [A,CE]2 [^G,CF]2 | [G,CG]2 [G,CE]2 [G,CF]2 [G,CE]2 | [G,D]4 [G,G]4 | %16
[M:3/4][K:bass] [C,G,]6 |] %17
V:3
 x8 | x8 | x8 | x8 | x8 | x8 | x8 | x8 | x8 | x8 | x8 | .E4 z4 | x8 | x8 | x8 | c4 z2 z F | %16
[M:3/4] x6 |] %17

